packages/core/src/svgs/tokens/mono/BETA.svg

<svg width="24" height="24" viewBox="0 0 24 24" fill="none" xmlns="http://www.w3.org/2000/svg">
<path fill-rule="evenodd" clip-rule="evenodd" d="M19.071 19.071C17.1957 20.9464 14.6522 22 12 22C9.34785 22 6.80429 20.9464 4.92892 19.071C3.05357 17.1957 2 14.6522 2 12C2 9.34785 3.05357 6.80429 4.92892 4.92892C6.80429 3.05357 9.34785 2 12 2C14.6522 2 17.1957 3.05357 19.071 4.92892C20.9464 6.80429 22 9.34785 22 12C22 14.6522 20.9464 17.1957 19.071 19.071ZM14.2236 7.84701C14.1588 7.76466 14.2352 7.64701 14.3353 7.67642C15.7824 8.08231 16.7235 8.74701 16.7235 9.51173C16.7235 10.7529 14.2117 11.7528 11.1176 11.7528C9.09998 11.7528 7.3294 11.3294 6.34704 10.6822C6.26468 10.6353 6.31175 10.5118 6.40586 10.5293C7.15293 10.6765 7.99411 10.7529 8.87645 10.7529C11.9705 10.7529 14.4823 9.75289 14.4823 8.5176C14.4823 8.2823 14.3883 8.05877 14.2236 7.84701ZM15.3294 11.753C15.253 11.6588 15.347 11.5235 15.4647 11.5529C17.1471 12.0294 18.247 12.8118 18.247 13.6999C18.247 15.1411 15.3176 16.3176 11.7 16.3176C9.34113 16.3176 7.27057 15.8176 6.12352 15.0647C6.02351 15.0059 6.08234 14.8647 6.19998 14.8881C7.06469 15.0587 8.04705 15.1529 9.08233 15.1529C12.7 15.1529 15.6295 13.9823 15.6295 12.5353C15.6295 12.2647 15.5235 12 15.3294 11.753Z" fill="white"/>
</svg>

<svg xmlns="http://www.w3.org/2000/svg" width="24" height="24" fill="none" viewBox="0 0 24 24">
    <path fill="#fff" fill-rule="evenodd" d="M19.071 19.071A10 10 0 1 1 4.929 4.93a10 10 0 0 1 14.142 14.14M14.224 7.847c-.065-.082.011-.2.111-.17 1.447.405 2.389 1.07 2.389 1.835 0 1.24-2.512 2.24-5.606 2.24-2.018 0-3.789-.423-4.771-1.07-.082-.047-.035-.17.059-.153a13 13 0 0 0 2.47.224c3.095 0 5.606-1 5.606-2.235 0-.236-.094-.46-.258-.671m1.105 3.906c-.076-.094.018-.23.136-.2 1.682.476 2.782 1.259 2.782 2.147 0 1.441-2.93 2.618-6.547 2.618-2.359 0-4.43-.5-5.576-1.253-.1-.06-.042-.2.076-.177.865.17 1.847.265 2.882.265 3.618 0 6.547-1.17 6.547-2.618 0-.27-.105-.535-.3-.782" clip-rule="evenodd"/>
</svg>
